X: 264
T:Mrs Grant's Strathspey -- Tombreackachy
B:William Marshall's Scottish Airs, Melodies, Strathspeys, Reels &c (1822)
C:William Marshall
L:1/8
M:C
O:Scotland
R:Strathspey
Z:Clark Bernst + Richard Robinson
%%Page:54 - 4
F:http://richardrobinson.tunebook.org.uk/tune/4107
%%TBL:{"version":1,"type":"tune","id":"4107"}
K:F
%%staves {1 2}
V:1
A | \
F<f !trill!f2 e/f/g/a/ bg | a<f {a}b>a (g/f/)e/d/ (c/B/)A/G/ | \
Af !trill!f2 (eg)gb | a>f e/f/g/e/ f2 f :|
B |\
A>B c<A B<GG<B | AFEF G/F/E/D/ CB | \
A>B c<A B<GG<B | AFCE F2 (FB) |
A>B c<A B<GG>B | AFEF G/F/E/D/ CB | \
A>B c<A B<GG<B | c>f e/f/g/e/ f2 f |]
V:2 middle=d clef=bass
L:1/4
z/ | FAce | fBcc | FAce | fcff/ :| \
z/ | ffgg | ffcc | ffBB | cEFF | ffgg | ffcc | ffBB | ccfF/ |]

